github.svg

<svg height="480" viewBox="0 0 492 480" width="492" xmlns="http://www.w3.org/2000/svg"><path d="m458.526 122.505c-21.975-37.68-51.783-67.51-89.432-89.499-37.654-21.99-78.761-32.982-123.351-32.982-44.583 0-85.704 10.995-123.35 32.982-37.652 21.988-67.459 51.819-89.435 89.499-21.972 37.678-32.958 78.822-32.958 123.432 0 53.587 15.623 101.774 46.877 144.573 31.25 42.803 71.621 72.42 121.109 88.856 5.761 1.07 10.025.318 12.798-2.238 2.773-2.56 4.159-5.765 4.159-9.603 0-.64-.055-6.402-.162-17.291-.11-10.889-.161-20.388-.161-28.493l-7.36 1.274c-4.692.86-10.612 1.224-17.759 1.121-7.144-.1-14.559-.849-22.237-2.242-7.682-1.38-14.827-4.582-21.44-9.599-6.61-5.017-11.303-11.583-14.076-19.69l-3.2-7.368c-2.133-4.906-5.491-10.355-10.078-16.329-4.587-5.979-9.226-10.032-13.918-12.166l-2.24-1.605c-1.493-1.067-2.878-2.353-4.159-3.846-1.28-1.493-2.238-2.986-2.878-4.483-.641-1.497-.11-2.725 1.599-3.688 1.709-.964 4.798-1.431 9.28-1.431l6.397.956c4.266.856 9.544 3.412 15.839 7.684 6.292 4.269 11.464 9.818 15.518 16.646 4.908 8.754 10.822 15.425 17.759 20.016 6.93 4.59 13.918 6.882 20.956 6.882s13.117-.534 18.239-1.596c5.116-1.068 9.916-2.673 14.398-4.806 1.92-14.309 7.147-25.301 15.677-32.984-12.158-1.279-23.089-3.205-32.797-5.765-9.704-2.564-19.731-6.725-30.075-12.494-10.35-5.761-18.936-12.916-25.76-21.451-6.825-8.539-12.427-19.75-16.796-33.622-4.372-13.878-6.559-29.887-6.559-48.031 0-25.835 8.428-47.819 25.28-65.965-7.894-19.423-7.149-41.197 2.238-65.319 6.187-1.923 15.361-.48 27.519 4.322 12.16 4.803 21.063 8.918 26.718 12.33 5.655 3.41 10.186 6.301 13.6 8.645 19.842-5.549 40.319-8.323 61.436-8.323s41.598 2.774 61.442 8.323l12.159-7.682c8.314-5.125 18.133-9.822 29.432-14.092 11.306-4.267 19.951-5.443 25.927-3.519 9.596 24.123 10.451 45.895 2.554 65.318 16.852 18.146 25.283 40.136 25.283 65.965 0 18.145-2.195 34.204-6.56 48.188-4.371 13.987-10.02 25.187-16.951 33.623-6.938 8.435-15.579 15.533-25.923 21.293-10.347 5.765-20.377 9.926-30.081 12.49-9.708 2.564-20.638 4.49-32.796 5.771 11.089 9.603 16.634 24.76 16.634 45.466v67.558c0 3.838 1.334 7.042 4.003 9.603 2.667 2.556 6.877 3.308 12.638 2.237 49.494-16.434 89.865-46.052 121.115-88.855 31.246-42.799 46.874-90.985 46.874-144.573-.011-44.604-11.003-85.745-32.965-123.423z" fill="#fff"/></svg>

<?xml version="1.0" encoding="UTF-8"?>
<svg width="492px" height="480px" viewBox="0 0 492 480" xmlns="http://www.w3.org/2000/svg" xmlns:xlink="http://www.w3.org/1999/xlink" version="1.1">
 <g>
  <path id="Path" d="M458.526 122.505 C436.551 84.825 406.743 54.995 369.094 33.006 331.44 11.016 290.333 0.024 245.743 0.024 201.16 0.024 160.039 11.019 122.393 33.006 84.741 54.994 54.934 84.825 32.958 122.505 10.986 160.183 -0 201.327 -0 245.937 -0 299.524 15.623 347.711 46.877 390.51 78.127 433.313 118.498 462.93 167.986 479.366 173.747 480.436 178.011 479.684 180.784 477.128 183.557 474.568 184.943 471.363 184.943 467.525 184.943 466.885 184.888 461.123 184.781 450.234 184.671 439.345 184.62 429.846 184.62 421.741 L177.26 423.015 C172.568 423.875 166.648 424.239 159.501 424.136 152.357 424.036 144.942 423.287 137.264 421.894 129.582 420.514 122.437 417.312 115.824 412.295 109.214 407.278 104.521 400.712 101.748 392.605 L98.548 385.237 C96.415 380.331 93.057 374.882 88.47 368.908 83.883 362.929 79.244 358.876 74.552 356.742 L72.312 355.137 C70.819 354.07 69.434 352.784 68.153 351.291 66.873 349.798 65.915 348.305 65.275 346.808 64.634 345.311 65.165 344.083 66.874 343.12 68.583 342.156 71.672 341.689 76.154 341.689 L82.551 342.645 C86.817 343.501 92.095 346.057 98.39 350.329 104.682 354.598 109.854 360.147 113.908 366.975 118.816 375.729 124.73 382.4 131.667 386.991 138.597 391.581 145.585 393.873 152.623 393.873 159.661 393.873 165.74 393.339 170.862 392.277 175.978 391.209 180.778 389.604 185.26 387.471 187.18 373.162 192.407 362.17 200.937 354.487 188.779 353.208 177.848 351.282 168.14 348.722 158.436 346.158 148.409 341.997 138.065 336.228 127.715 330.467 119.129 323.312 112.305 314.777 105.48 306.238 99.878 295.027 95.509 281.155 91.137 267.277 88.95 251.268 88.95 233.124 88.95 207.289 97.378 185.305 114.23 167.159 106.336 147.736 107.081 125.962 116.468 101.84 122.655 99.917 131.829 101.36 143.987 106.162 156.147 110.965 165.05 115.08 170.705 118.492 176.36 121.902 180.891 124.793 184.305 127.137 204.147 121.588 224.624 118.814 245.741 118.814 266.858 118.814 287.339 121.588 307.183 127.137 L319.342 119.455 C327.656 114.33 337.475 109.633 348.774 105.363 360.08 101.096 368.725 99.92 374.701 101.844 384.297 125.967 385.152 147.739 377.255 167.162 394.107 185.308 402.538 207.298 402.538 233.127 402.538 251.272 400.343 267.331 395.978 281.315 391.607 295.302 385.958 306.502 379.027 314.938 372.089 323.373 363.448 330.471 353.104 336.231 342.757 341.996 332.727 346.157 323.023 348.721 313.315 351.285 302.385 353.211 290.227 354.492 301.316 364.095 306.861 379.252 306.861 399.958 L306.861 467.516 C306.861 471.354 308.195 474.558 310.864 477.119 313.531 479.675 317.741 480.427 323.502 479.356 372.996 462.922 413.367 433.304 444.617 390.501 475.863 347.702 491.491 299.516 491.491 245.928 491.48 201.324 480.488 160.183 458.526 122.505 Z" fill="#ffffff" fill-opacity="1" stroke="none"/>
 </g>
</svg>
